actions/22x22-light/edit-select-none.svg

<svg xmlns="http://www.w3.org/2000/svg" viewBox="0 0 22 22">
 <defs id="defs3051">
   <style type="text/css" id="current-color-scheme">
     .ColorScheme-Text {
       color:#4d4d4d;
     }
     </style>
 </defs>
   <path
      style="fill:currentColor;fill-opacity:1;stroke:none"
      d="m3 3v1 3h1v-3h3v-1h-3zm12 0v1h3v3h1v-4zm-.96875 2.4375a2.5 2.5 0 0 0 -2.5 2.5 2.5 2.5 0 0 0 2.5 2.5 2.5 2.5 0 0 0 2.5-2.5 2.5 2.5 0 0 0 -2.5-2.5zm-6 .0625a2.5 2.5 0 0 0 -2.5 2.5 2.5 2.5 0 0 0 2.5 2.5 2.5 2.5 0 0 0 2.5-2.5 2.5 2.5 0 0 0 -2.5-2.5zm-.0625 6.0625a2.5 2.5 0 0 0 -2.5 2.5 2.5 2.5 0 0 0 2.5 2.5 2.5 2.5 0 0 0 2.5-2.5 2.5 2.5 0 0 0 -2.5-2.5zm-4.96875 3.4375v4h1 3v-1h-3v-3z"
      class="ColorScheme-Text" />
 <defs id="defs3051">
   <style type="text/css" id="current-color-scheme">
     .ColorScheme-Text {
       color:#da4453;
     }
     </style>
 </defs>
   <path
      style="fill:currentColor;fill-opacity:1;stroke:none"
      d="m14.943359 11c-.725703 0-1.395004.179436-2.007812.537109-.612872.35761-1.099358.842207-1.457031 1.455079-.357738.612871-.535157 1.282172-.535157 2.007812 0 .725704.177547 1.394877.535157 2.007812.357673.612744.844159 1.097405 1.457031 1.455079.612872.357673 1.282109.537109 2.007812.537109.725704 0 1.395005-.179436 2.007813-.537109.612808-.35761 1.097404-.842271 1.455078-1.455079.35761-.612871.537109-1.282172.537109-2.007812 0-.725704-.179563-1.395005-.537109-2.007812-.357674-.612808-.84227-1.097405-1.455078-1.455079-.612936-.357673-1.282045-.537109-2.007813-.537109zm-1.177734 2.015625c.090265 0 .168402.033636.234375.099609l.943359.941407.941407-.941407c.065845-.065973.144109-.099609.234375-.099609.093781 0 .174261.033636.240234.099609l.46875.46875c.065973.065973.099609.1445.099609.238282 0 .090265-.033636.168465-.099609.234375l-.943359.943359.943359.943359c.065973.06591.099609.14411.099609.234375 0 .093718-.033636.172372-.099609.238282l-.46875.46875c-.065973.065973-.146453.099609-.240234.099609-.090266 0-.16853-.033636-.234375-.099609l-.941407-.941407-.943359.941407c-.065973.065973-.14411.099609-.234375.099609-.093781 0-.174261-.033636-.240234-.099609l-.46875-.46875c-.065973-.06591-.097657-.144564-.097657-.238282 0-.090265.031684-.168465.097657-.234375l.943359-.943359-.943359-.943359c-.065973-.06591-.097657-.14411-.097657-.234375 0-.093782.031684-.172309.097657-.238282l.46875-.46875c.065973-.065973.146453-.099609.240234-.099609z"
      class="ColorScheme-Text" />
</svg>

<svg xmlns="http://www.w3.org/2000/svg" viewBox="0 0 22 22">
  <defs id="defs3051">
    <style type="text/css" id="current-color-scheme">
      .ColorScheme-NegativeText {
        color:#da4453;
      }
      .ColorScheme-Text {
        color:#4d4d4d
      }
      </style>
  </defs>
 <path 
     style="fill:currentColor;fill-opacity:1;stroke:none"      
	 class="ColorScheme-Text"
     d="M 3 3 L 3 4 L 3 7 L 4 7 L 4 4 L 7 4 L 7 3 L 4 3 L 3 3 z M 15 3 L 15 4 L 18 4 L 18 7 L 19 7 L 19 3 L 15 3 z M 14.03125 5.4375 A 2.5 2.5 0 0 0 11.53125 7.9375 A 2.5 2.5 0 0 0 14.03125 10.4375 A 2.5 2.5 0 0 0 16.53125 7.9375 A 2.5 2.5 0 0 0 14.03125 5.4375 z M 8.03125 5.5 A 2.5 2.5 0 0 0 5.53125 8 A 2.5 2.5 0 0 0 8.03125 10.5 A 2.5 2.5 0 0 0 10.53125 8 A 2.5 2.5 0 0 0 8.03125 5.5 z M 7.96875 11.5625 A 2.5 2.5 0 0 0 5.46875 14.0625 A 2.5 2.5 0 0 0 7.96875 16.5625 A 2.5 2.5 0 0 0 10.46875 14.0625 A 2.5 2.5 0 0 0 7.96875 11.5625 z M 3 15 L 3 19 L 4 19 L 7 19 L 7 18 L 4 18 L 4 15 L 3 15 z "
     />
 <path 
     style="fill:currentColor;fill-opacity:1;stroke:none"      
	 class="ColorScheme-NegativeText"
     d="M 14.943359 11 C 14.217656 11 13.548355 11.179436 12.935547 11.537109 C 12.322675 11.894719 11.836189 12.379316 11.478516 12.992188 C 11.120778 13.605059 10.943359 14.27436 10.943359 15 C 10.943359 15.725704 11.120906 16.394877 11.478516 17.007812 C 11.836189 17.620556 12.322675 18.105217 12.935547 18.462891 C 13.548419 18.820564 14.217656 19 14.943359 19 C 15.669063 19 16.338364 18.820564 16.951172 18.462891 C 17.56398 18.105281 18.048576 17.62062 18.40625 17.007812 C 18.76386 16.394941 18.943359 15.72564 18.943359 15 C 18.943359 14.274296 18.763796 13.604995 18.40625 12.992188 C 18.048576 12.37938 17.56398 11.894783 16.951172 11.537109 C 16.338236 11.179436 15.669127 11 14.943359 11 z M 13.765625 13.015625 C 13.85589 13.015625 13.934027 13.049261 14 13.115234 L 14.943359 14.056641 L 15.884766 13.115234 C 15.950611 13.049261 16.028875 13.015625 16.119141 13.015625 C 16.212922 13.015625 16.293402 13.049261 16.359375 13.115234 L 16.828125 13.583984 C 16.894098 13.649957 16.927734 13.728484 16.927734 13.822266 C 16.927734 13.912531 16.894098 13.990731 16.828125 14.056641 L 15.884766 15 L 16.828125 15.943359 C 16.894098 16.009269 16.927734 16.087469 16.927734 16.177734 C 16.927734 16.271452 16.894098 16.350106 16.828125 16.416016 L 16.359375 16.884766 C 16.293402 16.950739 16.212922 16.984375 16.119141 16.984375 C 16.028875 16.984375 15.950611 16.950739 15.884766 16.884766 L 14.943359 15.943359 L 14 16.884766 C 13.934027 16.950739 13.85589 16.984375 13.765625 16.984375 C 13.671844 16.984375 13.591364 16.950739 13.525391 16.884766 L 13.056641 16.416016 C 12.990668 16.350106 12.958984 16.271452 12.958984 16.177734 C 12.958984 16.087469 12.990668 16.009269 13.056641 15.943359 L 14 15 L 13.056641 14.056641 C 12.990668 13.990731 12.958984 13.912531 12.958984 13.822266 C 12.958984 13.728484 12.990668 13.649957 13.056641 13.583984 L 13.525391 13.115234 C 13.591364 13.049261 13.671844 13.015625 13.765625 13.015625 z "
     />
</svg>
